Otagle3/Assets/ikonySvG/WarstwaWord.svg

<?xml version="1.0" encoding="UTF-8" standalone="no"?>
<svg
   xmlns:osb="http://www.openswatchbook.org/uri/2009/osb"
   xmlns:dc="http://purl.org/dc/elements/1.1/"
   xmlns:cc="http://creativecommons.org/ns#"
   xmlns:rdf="http://www.w3.org/1999/02/22-rdf-syntax-ns#"
   xmlns:svg="http://www.w3.org/2000/svg"
   xmlns="http://www.w3.org/2000/svg"
   id="svg47"
   version="1.1"
   viewBox="0 0 52.758294 52.758296"
   height="199.40143"
   width="199.40143">
  <defs
     id="defs42">
    <pattern
       id="EMFhbasepattern"
       patternUnits="userSpaceOnUse"
       width="6"
       height="6"
       x="0"
       y="0" />
    <marker
       style="overflow:visible"
       id="Arrow1Mend-5-0"
       refX="0"
       refY="0"
       orient="auto">
      <path
         transform="matrix(-0.4,0,0,-0.4,-4,0)"
         style="fill:#000000;fill-opacity:1;fill-rule:evenodd;stroke:#000000;stroke-width:1.00000003pt;stroke-opacity:1"
         d="M 0,0 5,-5 -12.5,0 5,5 Z"
         id="path1146-3-3" />
    </marker>
    <marker
       style="overflow:visible"
       id="Arrow1Mend-5-3"
       refX="0"
       refY="0"
       orient="auto">
      <path
         transform="matrix(-0.4,0,0,-0.4,-4,0)"
         style="fill:#000000;fill-opacity:1;fill-rule:evenodd;stroke:#000000;stroke-width:1.00000003pt;stroke-opacity:1"
         d="M 0,0 5,-5 -12.5,0 5,5 Z"
         id="path1146-3-9" />
    </marker>
    <marker
       orient="auto"
       refY="0"
       refX="0"
       id="Arrow1Mend-5-0-4"
       style="overflow:visible">
      <path
         id="path1146-3-3-8"
         d="M 0,0 5,-5 -12.5,0 5,5 Z"
         style="fill:#ffffff;fill-opacity:1;fill-rule:evenodd;stroke:#ffffff;stroke-width:1.00000003pt;stroke-opacity:1"
         transform="matrix(-0.4,0,0,-0.4,-4,0)" />
    </marker>
    <marker
       orient="auto"
       refY="0"
       refX="0"
       id="Arrow1Mend-5-3-8"
       style="overflow:visible">
      <path
         id="path1146-3-9-5"
         d="M 0,0 5,-5 -12.5,0 5,5 Z"
         style="fill:#ffffff;fill-opacity:1;fill-rule:evenodd;stroke:#ffffff;stroke-width:1.00000003pt;stroke-opacity:1"
         transform="matrix(-0.4,0,0,-0.4,-4,0)" />
    </marker>
    <marker
       style="overflow:visible"
       id="Arrow1Mend"
       refX="0"
       refY="0"
       orient="auto">
      <path
         transform="matrix(-0.4,0,0,-0.4,-4,0)"
         style="fill:#000000;fill-opacity:1;fill-rule:evenodd;stroke:#000000;stroke-width:1.00000003pt;stroke-opacity:1"
         d="M 0,0 5,-5 -12.5,0 5,5 Z"
         id="path1146" />
    </marker>
    <marker
       orient="auto"
       refY="0"
       refX="0"
       id="Arrow1Mend-5"
       style="overflow:visible">
      <path
         id="path1146-3"
         d="M 0,0 5,-5 -12.5,0 5,5 Z"
         style="fill:#ffffff;fill-opacity:1;fill-rule:evenodd;stroke:#ffffff;stroke-width:1.00000003pt;stroke-opacity:1"
         transform="matrix(-0.4,0,0,-0.4,-4,0)" />
    </marker>
    <marker
       style="overflow:visible"
       id="Arrow1Mstart"
       refX="0"
       refY="0"
       orient="auto">
      <path
         transform="matrix(0.4,0,0,0.4,4,0)"
         style="fill:#000000;fill-opacity:1;fill-rule:evenodd;stroke:#000000;stroke-width:1.00000003pt;stroke-opacity:1"
         d="M 0,0 5,-5 -12.5,0 5,5 Z"
         id="path1143" />
    </marker>
    <marker
       orient="auto"
       refY="0"
       refX="0"
       id="Arrow1Mstart-1"
       style="overflow:visible">
      <path
         id="path1143-7"
         d="M 0,0 5,-5 -12.5,0 5,5 Z"
         style="fill:#ffffff;fill-opacity:1;fill-rule:evenodd;stroke:#ffffff;stroke-width:1.00000003pt;stroke-opacity:1"
         transform="matrix(0.4,0,0,0.4,4,0)" />
    </marker>
    <marker
       style="overflow:visible"
       id="Arrow1Lend"
       refX="0"
       refY="0"
       orient="auto">
      <path
         transform="matrix(-0.8,0,0,-0.8,-10,0)"
         style="fill:#000000;fill-opacity:1;fill-rule:evenodd;stroke:#000000;stroke-width:1.00000003pt;stroke-opacity:1"
         d="M 0,0 5,-5 -12.5,0 5,5 Z"
         id="path1140" />
    </marker>
    <marker
       style="overflow:visible"
       id="Arrow1Lstart"
       refX="0"
       refY="0"
       orient="auto">
      <path
         transform="matrix(0.8,0,0,0.8,10,0)"
         style="fill:#000000;fill-opacity:1;fill-rule:evenodd;stroke:#000000;stroke-width:1.00000003pt;stroke-opacity:1"
         d="M 0,0 5,-5 -12.5,0 5,5 Z"
         id="path1137" />
    </marker>
    <marker
       orient="auto"
       refY="0"
       refX="0"
       id="Arrow1Lend-5"
       style="overflow:visible">
      <path
         id="path1140-4"
         d="M 0,0 5,-5 -12.5,0 5,5 Z"
         style="fill:#ffffff;fill-opacity:1;fill-rule:evenodd;stroke:#ffffff;stroke-width:1.00000003pt;stroke-opacity:1"
         transform="matrix(-0.8,0,0,-0.8,-10,0)" />
    </marker>
    <marker
       orient="auto"
       refY="0"
       refX="0"
       id="Arrow1Lstart-93"
       style="overflow:visible">
      <path
         id="path1137-7"
         d="M 0,0 5,-5 -12.5,0 5,5 Z"
         style="fill:#ffffff;fill-opacity:1;fill-rule:evenodd;stroke:#ffffff;stroke-width:1.00000003pt;stroke-opacity:1"
         transform="matrix(0.8,0,0,0.8,10,0)" />
    </marker>
    <linearGradient
       id="linearGradient4460"
       osb:paint="solid">
      <stop
         style="stop-color:#db3b3b;stop-opacity:1;"
         offset="0"
         id="stop4458" />
    </linearGradient>
  </defs>
  <metadata
     id="metadata45">
    <rdf:RDF>
      <cc:Work
         rdf:about="">
        <dc:format>image/svg+xml</dc:format>
        <dc:type
           rdf:resource="http://purl.org/dc/dcmitype/StillImage" />
        <dc:title></dc:title>
      </cc:Work>
    </rdf:RDF>
  </metadata>
  <g
     id="g8556"
     transform="translate(49.836509,-375.23204)">
    <g
       id="g5305">
      <text
         xml:space="preserve"
         style="font-size:6.3499999px;line-height:1.25;font-family:voestalpine;-inkscape-font-specification:voestalpine;text-align:center;letter-spacing:0px;word-spacing:0px;text-anchor:middle;display:inline;stroke-width:0.26458299"
         x="-23.328035"
         y="425.50534"
         id="text858-5-8-2"><tspan
           id="tspan921-9-5"
           x="-23.328035"
           y="425.50534"
           style="font-size:6.3499999px;text-align:center;text-anchor:middle;fill:#ffffff;fill-opacity:1;stroke-width:0.26458299">Rejestr zmian</tspan></text>
      <g
         id="g3953-0"
         transform="translate(-156.49748,405.79246)"
         style="display:inline">
        <path
           style="fill:#ffffff;fill-opacity:1;stroke:none;stroke-width:0;stroke-miterlimit:4;stroke-dasharray:none;stroke-opacity:1"
           d="m 131.72154,-16.34338 h 2.1158 v 2.107756 c 0,0.168943 0.13676,0.305706 0.30571,0.305706 h 2.41346 c 0.16894,0 0.3057,-0.136763 0.3057,-0.305706 v -2.115801 h 2.09972 c 0.16894,0 0.3057,-0.136763 0.3057,-0.305705 v -2.405417 c 0,-0.168942 -0.13676,-0.305705 -0.3057,-0.305705 h -2.11581 v -2.107757 c 0,-0.168942 -0.13676,-0.305705 -0.3057,-0.305705 h -2.41346 c -0.16895,0 -0.30571,0.136763 -0.30571,0.305705 v 2.115802 h -2.09971 c -0.16894,0 -0.3057,0.136762 -0.3057,0.305705 v 2.413462 c 0.008,0.160897 0.13676,0.29766 0.3057,0.29766 z m 0.30571,-2.413462 h 2.10775 c 0.16894,0 0.30571,-0.136763 0.30571,-0.305705 v -2.107757 h 1.81009 v 2.107757 c 0,0.168942 0.13677,0.305705 0.30571,0.305705 h 2.1158 v 1.810096 h -2.12385 c -0.16894,0 -0.3057,0.136763 -0.3057,0.305706 v 2.115801 h -1.8101 v -2.123846 c 0,-0.168943 -0.13676,-0.305706 -0.3057,-0.305706 h -2.1158 v -1.802051 z"
           id="path968-0" />
        <path
           style="fill:#ffffff;fill-opacity:1;stroke:none;stroke-width:0;stroke-miterlimit:4;stroke-dasharray:none;stroke-opacity:1"
           d="m 140.30095,-23.382644 h -16.08974 c -0.16894,0 -0.29766,0.128718 -0.29766,0.297661 V 1.0496339 c 0,0.1689423 0.13676,0.3057052 0.3057,0.3057052 H 140.309 c 0.16894,0 0.3057,-0.1367629 0.3057,-0.3057052 V -23.084983 c -0.008,-0.168943 -0.1448,-0.297661 -0.31375,-0.297661 z M 140.00329,0.75197364 H 124.51691 V -22.779278 h 15.48638 z"
           id="path970-0" />
        <path
           style="fill:#ffffff;fill-opacity:1;stroke:none;stroke-width:0;stroke-miterlimit:4;stroke-dasharray:none;stroke-opacity:1"
           d="m 127.42916,-8.2985078 h 9.65384 c 0.16895,0 0.30571,-0.1367628 0.30571,-0.3057052 0,-0.1689423 -0.13676,-0.3057051 -0.30571,-0.3057051 h -9.65384 c -0.16895,0 -0.30571,0.1367628 -0.30571,0.3057051 0,0.1689424 0.13676,0.3057052 0.30571,0.3057052 z"
           id="path972-0" />
        <path
           style="fill:#ffffff;fill-opacity:1;stroke:none;stroke-width:0;stroke-miterlimit:4;stroke-dasharray:none;stroke-opacity:1"
           d="m 127.42916,-11.516457 h 6.43589 c 0.16895,0 0.30571,-0.136763 0.30571,-0.305705 0,-0.168942 -0.13676,-0.305705 -0.30571,-0.305705 h -6.43589 c -0.16895,0 -0.30571,0.136763 -0.30571,0.305705 0,0.168942 0.13676,0.305705 0.30571,0.305705 z"
           id="path974-1" />
        <path
           style="fill:#ffffff;fill-opacity:1;stroke:none;stroke-width:0;stroke-miterlimit:4;stroke-dasharray:none;stroke-opacity:1"
           d="m 127.42916,-5.0805588 h 9.65384 c 0.16895,0 0.30571,-0.1367629 0.30571,-0.3057052 0,-0.1689423 -0.13676,-0.3057052 -0.30571,-0.3057052 h -9.65384 c -0.16895,0 -0.30571,0.1367629 -0.30571,0.3057052 0,0.1689423 0.13676,0.3057052 0.30571,0.3057052 z"
           id="path976-0" />
        <path
           style="fill:#ffffff;fill-opacity:1;stroke:none;stroke-width:0;stroke-miterlimit:4;stroke-dasharray:none;stroke-opacity:1"
           d="m 127.42916,-1.8626099 h 9.65384 c 0.16895,0 0.30571,-0.1367628 0.30571,-0.3057051 0,-0.1689424 -0.13676,-0.3057052 -0.30571,-0.3057052 h -9.65384 c -0.16895,0 -0.30571,0.1367628 -0.30571,0.3057052 0,0.1689423 0.13676,0.3057051 0.30571,0.3057051 z"
           id="path978-0" />
      </g>
      <g
         id="g1585"
         style="display:inline"
         transform="translate(-1090.315,403.19935)">
        <rect
           y="-27.584515"
           x="1040.4629"
           height="52.395985"
           width="52.395985"
           id="rect835-2-0-2-8-1-5-6-8-9-7-3-0-5-5-1-5-4-5-2"
           style="fill:#0082b4;fill-opacity:1;stroke:#000000;stroke-width:0.520679;stroke-linecap:round;stroke-miterlimit:4;stroke-dasharray:none;paint-order:fill markers stroke" />
        <text
           xml:space="preserve"
           style="font-size:8.46667004px;line-height:1.04999995;font-family:voestalpine;-inkscape-font-specification:voestalpine;text-align:center;letter-spacing:0px;word-spacing:0px;text-anchor:middle;stroke-width:0.26458299"
           x="1067.644"
           y="14.330747"
           id="text858-5-83-73-7-0-7-0-7-9"><tspan
             id="tspan2108"
             x="1068.661"
             y="14.330747"
             style="font-size:8.46667004px;text-align:center;text-anchor:middle;fill:#ffffff;fill-opacity:1;stroke-width:0.26458299">Warstwa </tspan><tspan
             id="tspan2533"
             x="1067.644"
             y="23.220749"
             style="font-size:8.46667004px;text-align:center;text-anchor:middle;fill:#ffffff;fill-opacity:1;stroke-width:0.26458299">Word</tspan></text>
        <g
           transform="matrix(0.29427993,0,0,0.29427993,1051.9469,-25.245047)"
           id="g2106"
           style="fill:#ffffff;fill-opacity:1">
          <g
             style="fill:#ffffff;fill-opacity:1"
             id="g2093">
            <rect
               style="fill:#ffffff;fill-opacity:1"
               x="70"
               y="20"
               width="20"
               height="60"
               id="rect2089" />
            <path
               style="fill:#ffffff;fill-opacity:1"
               d="M 10,80 66,95 V 5 L 10,20 Z M 25.4,30 28.8,58.4 33.7,30 h 8.6 l 4.5,28.4 4,-28.4 h 7.8 L 52.8,64.6 H 42.2 L 37.9,38.2 33.4,64.6 H 22.9 L 17.2,30 Z"
               id="path2091" />
          </g>
        </g>
      </g>
    </g>
  </g>
</svg>

<svg id="SVGRoot" width="206px" height="206px" version="1.1" viewBox="0 0 206 206" xmlns="http://www.w3.org/2000/svg">
 <g transform="matrix(3.7795 0 0 3.7795 -1795.2 2502.6)">
  <flowRoot fill="black" font-family="sans-serif" font-size="40px" letter-spacing="0px" word-spacing="0px" style="line-height:1.25" xml:space="preserve"><flowRegion><rect x="-392.69" y="-63.57" width="758.02" height="397.52"/></flowRegion><flowPara/></flowRoot>
  <flowRoot fill="black" font-family="sans-serif" font-size="40px" letter-spacing="0px" word-spacing="0px" style="line-height:1.25" xml:space="preserve"><flowRegion><rect x="-251.87" y="-84.492" width="624.44" height="455.45"/></flowRegion><flowPara/></flowRoot>
  <flowRoot fill="black" font-family="sans-serif" font-size="40px" letter-spacing="0px" word-spacing="0px" style="line-height:1.25" xml:space="preserve"><flowRegion><rect x="-202.78" y="-50.695" width="473.96" height="281.64"/></flowRegion><flowPara/></flowRoot>
  <flowRoot fill="black" font-family="sans-serif" font-size="40px" letter-spacing="0px" word-spacing="0px" style="line-height:1.25" xml:space="preserve"><flowRegion><rect x="-86.906" y="-78.859" width="516.61" height="410.39"/></flowRegion><flowPara/></flowRoot>
  <flowRoot fill="black" font-family="sans-serif" font-size="40px" letter-spacing="0px" word-spacing="0px" style="line-height:1.25" xml:space="preserve"><flowRegion><rect x="-81.273" y="-32.188" width="309" height="322.68"/></flowRegion><flowPara/></flowRoot>
  <flowRoot fill="black" font-family="sans-serif" font-size="40px" letter-spacing="0px" word-spacing="0px" style="line-height:1.25" xml:space="preserve"><flowRegion><rect x="-90.93" y="-68.398" width="392.69" height="252.67"/></flowRegion><flowPara/></flowRoot>
  <g transform="translate(675.17 -.21291)">
   <flowRoot fill="black" font-family="sans-serif" font-size="40px" letter-spacing="0px" word-spacing="0px" style="line-height:1.25" xml:space="preserve"><flowRegion><rect x="-100.59" y="-53.109" width="462.7" height="369.35"/></flowRegion><flowPara/></flowRoot>
   <g transform="translate(57.194 .21291)">
    <flowRoot fill="black" font-family="sans-serif" font-size="40px" letter-spacing="0px" word-spacing="0px" style="line-height:1.25" xml:space="preserve"><flowRegion><rect x="-329.12" y="-12.07" width="696.05" height="259.91"/></flowRegion><flowPara/></flowRoot>
    <g transform="translate(-1495.1 -629.38)">
     <flowRoot fill="black" font-family="sans-serif" font-size="40px" letter-spacing="0px" word-spacing="0px" style="line-height:1.25" xml:space="preserve"><flowRegion><rect x="-306.59" y="-111.05" width="206" height="51.5"/></flowRegion><flowPara/></flowRoot>
     <flowRoot fill="black" font-family="sans-serif" font-size="40px" letter-spacing="0px" word-spacing="0px" style="line-height:1.25" xml:space="preserve"><flowRegion><rect x="-70.812" y="-36.211" width="362.91" height="283.25"/></flowRegion><flowPara/></flowRoot>
     <g transform="translate(538.4 -400.97)">
      <flowRoot fill="black" font-family="sans-serif" font-size="40px" letter-spacing="0px" word-spacing="0px" style="line-height:1.25" xml:space="preserve"><flowRegion><rect x="-138.41" y="-65.18" width="448.21" height="363.72"/></flowRegion><flowPara/></flowRoot>
      <flowRoot fill="black" font-family="sans-serif" font-size="40px" letter-spacing="0px" word-spacing="0px" style="line-height:1.25" xml:space="preserve"><flowRegion><rect x="-67.578" y="-8.4531" width="327.73" height="260.94"/></flowRegion><flowPara/></flowRoot>
      <g transform="translate(-380.28 455.78)">
       <flowRoot fill="black" font-family="sans-serif" font-size="40px" letter-spacing="0px" word-spacing="0px" style="line-height:1.25" xml:space="preserve"><flowRegion><rect x="-5.8594" y="-7.2813" width="339.45" height="326.95"/></flowRegion><flowPara/></flowRoot>
       <g transform="translate(40.18 -58.755)">
        <rect x="1040.5" y="-27.585" width="52.396" height="52.396" fill="#0082b4" stroke="#000" stroke-linecap="round" stroke-width=".52068" style="paint-order:fill markers stroke"/>
        <text x="1067.644" y="12.493833" fill="#ffffff" font-family="sans-serif" font-size="4.9389px" letter-spacing="0px" stroke-width=".26458" text-align="center" text-anchor="middle" word-spacing="0px" style="line-height:1.04999995" xml:space="preserve"><tspan x="1068.5122" y="12.493833" text-align="center">Warstwa </tspan><tspan x="1067.644" y="21.383835" text-align="center">Word</tspan></text>
        <g transform="matrix(.29428 0 0 .29428 1051.9 -25.245)" fill="#fff">
         <g fill="#fff">
          <rect x="70" y="20" width="20" height="60"/>
          <path d="m10 80 56 15v-90l-56 15zm15.4-50 3.4 28.4 4.9-28.4h8.6l4.5 28.4 4-28.4h7.8l-5.8 34.6h-10.6l-4.3-26.4-4.5 26.4h-10.5l-5.7-34.6z"/>
         </g>
        </g>
       </g>
      </g>
     </g>
    </g>
   </g>
  </g>
 </g>
</svg>
